X:1
T:Lux Eoi, 87.87 D
T:Arthur Seymour Sullivan, 1874
T:Lux Eoi, 87.87 D
T:Public Domain
C:Arthur Seymour Sullivan, 1874
Z:Public Domain
%%score ( 1 2 ) ( 3 4 )
L:1/8
M:4/4
K:D
V:1 treble 
V:2 treble 
V:3 bass 
V:4 bass 
V:1
 [DA]3 [DA] [Dd]2 [DA]2 | [FA]2 [EG]2 [EG]2 [DF]2 | [DB]2 [EB]2 [FA]2 [A,F]2 | %3
 [B,E]2 [B,D]2 [CE]4 | [CA]3 [CA] [Dd]2 [Dd]2 | [Ec]2 [EB]2 [Ee]2 [EA]2 | [E^G]2 [DF]2 [CE]2 (FE) | %7
 [DA]2 [D^G]2 [CA]4 | [DG]2 [DG]2 [CF]2 [CF]2 | D2 z B [FB]2 [F^A]2 | [FB]2 [Fc]2 [Fd]2 [Gc]2 | %11
 F2 [F^A]2 [FB]4 | [GA]2 [Fd]2 [Af]2 [Ae]2 | [Ad]2 [Ac]2 [GB]2 [FA]2 | %14
 [=F^G]2 [E=G]2 [D^F]2 [DB]2 | [A,D]2 [CE]2 D4 |] %16
V:2
 x8 | x8 | x8 | x8 | x8 | x8 | x6 A2 | x8 | x8 | B3 E2 x3 | x8 | F2 x6 | x8 | x8 | x8 | x4 D4 |] %16
V:3
 [D,F,]3 [D,F,] [D,F,]2 [F,A,]2 | [A,D]2 [A,,C]2 [A,,C]2 [D,D]2 | [G,B,]2 [G,C]2 [F,D]2 [D,F,]2 | %3
 [B,,^G,]2 [E,G,]2 [A,,A,]4 | [G,A,]3 [G,A,] [F,A,]2 [F,A,]2 | [E,A,]2 [D,^G,]2 [C,A,]2 [C,A,]2 | %6
 [D,A,]2 [D,B,]2 [E,C]2 (DC) | [E,B,]2 E,2 [A,,E,]4 | [B,,G,]2 [B,,G,]2 [A,,A,]2 [A,,A,]2 | %9
 [G,,B,]2 [G,B,]2 [F,C]2 [F,C]2 | [D,B,]2 [C,^A,]2 [B,,B,]2 (B,C) | [F,D]2 [F,C]2 [B,D]4 | %12
 [CE]2 D2 [A,D]2 [G,C]2 | [F,D]2 [F,,D]2 [G,,D]2 [A,,D]2 | [B,,D]2 [C,A,]2 D,2 [G,,E,]2 | %15
 [A,,F,]2 [A,,G,]2 [D,F,]4 |] %16
V:4
 x8 | x8 | x8 | x8 | x8 | x8 | x6 E,2 | x2 E,2 x4 | x8 | x8 | x6 E,2 | x8 | x2 D2 x4 | x8 | %14
 x4 D,2 x2 | x8 |] %16

